X:0625
T:Lamberton Races.
M:C
L:1/8
Q:1/2=104
I: :: ::
Z:Jack Campin * www.campin.me.uk * 2009
K:G
B|(GB).d.g bgaf|g(edB)           c(AA)B|(GB).d.g bgaf|(ge)Td>c B(GG):|
c| BdGd    BdGd|c>d (e/d/).c/.B/ c(AA)B|(GB).d.g bgaf|(ge)Td>c B(GG):|

